Yaru++/apps/16/snap-store.svg

<svg height="16" width="16" xmlns="http://www.w3.org/2000/svg"><path d="m.5.9435973 8.1300811 8.1301038v-5.1988912zm9.3607142 2.967685 5.6392858 2.5350047-1.241435-2.5350047zm-.7311761.1859527v4.7246362l3.3907769-3.183307zm-2.4230815 3.812674-3.7569637 7.090091 5.449833-5.4500784z" fill="#808080"/></svg>

<svg xmlns="http://www.w3.org/2000/svg" width="16" height="16" version="1.1">
 <path d="M 0.5,0.9435973 8.6300811,9.0737011 V 3.8748099 Z M 9.8607142,3.9112823 15.5,6.446287 14.258565,3.9112823 Z M 9.1295381,4.097235 V 8.8218712 L 12.520315,5.6385642 Z M 6.7064566,7.909909 2.9494929,15 8.3993259,9.5499216 Z" style="fill:#808080"/>
</svg>
